T: Shore House, The
M: 4/4
L: 1/8
K: Dmaj
edcA BF F2 | BFdF BF F2 | edcA BF F2 | EFAc B3 d :|
efec A2 A2 | Acec fB B2 | eA A2 A2 ce | faec dB B2 |
efec eA A2 | Acec fB B2 | eAce afea | fedc Bcdf ||
